X: 8219
T: Copenhagen, The
R: reel
M: 4/4
K: Dmajor
|:c|BEcE BEEc|BEcE ADDc|BEcE Bgfe|dcdA FDDc|
BEcE BEEc|BEcE ADDc|BEcE Bgfe|dcdA FDD:|
|:d|Beec d2dA|Bdef gefd|Beec d2dA|BGAG FDDd|
Bddc d2dA|Bdef (3ggg ef|gbeg dedc|BGAG FDD:|

